azure-patterns/svg-sql-db.svg

<svg xmlns="http://www.w3.org/2000/svg" viewBox="0 0 41 50">
                                
                            
<rect width="41" height="49.7" fill="black" fill-opacity="0"></rect>
<rect width="37.4" height="49.7" fill="black" fill-opacity="0" transform="translate(2)"></rect>
<path d="M2 6.8V42.9C2 46.6 10.4 49.7 20.7 49.7V6.8H2Z" fill="#0072C6"></path>
<path d="M20.4 49.7H20.7C31.1 49.7 39.4 46.7 39.4 42.9V6.8H20.4V49.7V49.7Z" fill="#0072C6"></path>
<path opacity="0.15" d="M20.4 49.7H20.7C31.1 49.7 39.4 46.7 39.4 42.9V6.8H20.4V49.7V49.7Z" fill="white"></path>
<path d="M39.4 6.8C39.4 10.5 31 13.6 20.7 13.6C10.4 13.6 2 10.6 2 6.8C2 3.1 10.4 0 20.7 0C31 0 39.4 3.1 39.4 6.8Z" fill="white"></path>
<path d="M35.6 6.5C35.6 8.9 28.9 10.9 20.7 10.9C12.5 10.9 5.79999 8.9 5.79999 6.5C5.79999 4 12.5 2 20.7 2C28.9 2 35.6 4 35.6 6.5Z" fill="#7FBA00"></path>
<path d="M32.5 9.2C34.5 8.4 35.6 7.5 35.6 6.5C35.6 4 28.9 2 20.7 2C12.5 2 5.79999 4 5.79999 6.5C5.79999 7.5 6.99999 8.5 8.89999 9.2C11.6 8.1 15.9 7.5 20.7 7.5C25.5 7.4 29.8 8.1 32.5 9.2Z" fill="#B8D432"></path>
<rect width="41" height="22" fill="black" fill-opacity="0" transform="translate(0 17)"></rect>
<path d="M7.48485 32.5972V30.2534C7.90966 30.6099 8.37108 30.8784 8.86913 31.0591C9.36718 31.2349 9.87011 31.3228 10.3779 31.3228C10.6758 31.3228 10.9346 31.2959 11.1543 31.2422C11.3789 31.1885 11.5644 31.1152 11.7109 31.0225C11.8623 30.9248 11.9746 30.8125 12.0478 30.6855C12.1211 30.5537 12.1577 30.4121 12.1577 30.2607C12.1577 30.0557 12.0991 29.8726 11.9819 29.7114C11.8647 29.5503 11.7036 29.4014 11.4985 29.2646C11.2983 29.1279 11.0591 28.9961 10.7808 28.8691C10.5024 28.7422 10.2021 28.6128 9.87987 28.481C9.05956 28.1392 8.44677 27.7217 8.04149 27.2285C7.6411 26.7354 7.44091 26.1396 7.44091 25.4414C7.44091 24.8945 7.55077 24.4258 7.7705 24.0352C7.99022 23.6396 8.28807 23.3149 8.66405 23.061C9.04491 22.8071 9.48436 22.6216 9.98241 22.5044C10.4805 22.3823 11.0078 22.3213 11.5644 22.3213C12.1113 22.3213 12.5947 22.3555 13.0146 22.4238C13.4394 22.4873 13.8301 22.5874 14.1865 22.7241V24.9141C14.0107 24.792 13.8179 24.6846 13.6079 24.5918C13.4028 24.499 13.1904 24.4233 12.9707 24.3647C12.751 24.3013 12.5312 24.2549 12.3115 24.2256C12.0967 24.1963 11.8916 24.1816 11.6963 24.1816C11.4277 24.1816 11.1836 24.2085 10.9639 24.2622C10.7441 24.311 10.5586 24.3818 10.4072 24.4746C10.2558 24.5674 10.1387 24.6797 10.0557 24.8115C9.97264 24.9385 9.93114 25.0825 9.93114 25.2437C9.93114 25.4194 9.97753 25.5781 10.0703 25.7197C10.1631 25.8564 10.2949 25.9883 10.4658 26.1152C10.6367 26.2373 10.8442 26.3594 11.0884 26.4814C11.3325 26.5986 11.6084 26.7207 11.916 26.8477C12.3359 27.0234 12.7119 27.2114 13.0439 27.4116C13.3808 27.6069 13.6689 27.8291 13.9082 28.0781C14.1474 28.3271 14.3306 28.6128 14.4575 28.9351C14.5845 29.2524 14.6479 29.6235 14.6479 30.0483C14.6479 30.6343 14.5356 31.1274 14.311 31.5278C14.0913 31.9233 13.791 32.2456 13.4101 32.4946C13.0293 32.7388 12.5849 32.9146 12.0771 33.022C11.5742 33.1294 11.042 33.1831 10.4805 33.1831C9.90429 33.1831 9.35497 33.1343 8.83251 33.0366C8.31493 32.939 7.86571 32.7925 7.48485 32.5972ZM20.8149 33.1831C19.311 33.1831 18.0854 32.6948 17.1382 31.7183C16.1909 30.7319 15.7173 29.4551 15.7173 27.8877C15.7173 26.2324 16.1982 24.8896 17.1601 23.8594C18.1172 22.834 19.3916 22.3213 20.9834 22.3213C22.4824 22.3213 23.6933 22.812 24.6162 23.7935C25.5439 24.77 26.0078 26.064 26.0078 27.6753C26.0078 29.3208 25.5268 30.6514 24.5649 31.667C24.5308 31.7012 24.499 31.7354 24.4697 31.7695C24.4404 31.7988 24.4087 31.8281 24.3745 31.8574L27.0332 34.4136H23.7226L22.331 33C21.8721 33.1221 21.3667 33.1831 20.8149 33.1831ZM20.9175 24.3574C20.0923 24.3574 19.4331 24.6699 18.9399 25.2949C18.4516 25.915 18.2075 26.7378 18.2075 27.7632C18.2075 28.8032 18.4516 29.626 18.9399 30.2314C19.4282 30.8369 20.0679 31.1396 20.8589 31.1396C21.6743 31.1396 22.3213 30.8467 22.7998 30.2607C23.2783 29.665 23.5176 28.8472 23.5176 27.8071C23.5176 26.7231 23.2856 25.876 22.8218 25.2656C22.3628 24.6602 21.728 24.3574 20.9175 24.3574ZM34.0132 33H27.7583V22.4971H30.124V31.0811H34.0132V33Z" fill="white"></path>
</svg>

<svg xmlns="http://www.w3.org/2000/svg" viewBox="0 0 41 50"><path fill="none" d="M0 0h41v49.7H0z"/><path fill="none" d="M2 0h37.4v49.7H2z"/><path d="M2 6.8v36.1c0 3.7 8.4 6.8 18.7 6.8V6.8H2z" fill="#0072C6"/><path d="M20.4 49.7h.3c10.4 0 18.7-3 18.7-6.8V6.8h-19v42.9z" fill="#0072C6"/><path opacity=".15" d="M20.4 49.7h.3c10.4 0 18.7-3 18.7-6.8V6.8h-19v42.9z" fill="#fff"/><path d="M39.4 6.8c0 3.7-8.4 6.8-18.7 6.8-10.3 0-18.7-3-18.7-6.8C2 3.1 10.4 0 20.7 0 31 0 39.4 3.1 39.4 6.8z" fill="#fff"/><path d="M35.6 6.5c0 2.4-6.7 4.4-14.9 4.4S5.8 8.9 5.8 6.5C5.8 4 12.5 2 20.7 2s14.9 2 14.9 4.5z" fill="#7FBA00"/><path d="M32.5 9.2c2-.8 3.1-1.7 3.1-2.7C35.6 4 28.9 2 20.7 2S5.8 4 5.8 6.5c0 1 1.2 2 3.1 2.7 2.7-1.1 7-1.7 11.8-1.7 4.8-.1 9.1.6 11.8 1.7z" fill="#B8D432"/><path fill="none" d="M0 17h41v22H0z"/><path d="M7.485 32.597v-2.344c.425.357.886.625 1.384.806a4.505 4.505 0 0 0 1.509.264c.298 0 .557-.027.776-.08a1.84 1.84 0 0 0 .557-.22c.151-.098.264-.21.337-.337a.91.91 0 0 0-.066-.974 1.873 1.873 0 0 0-.483-.447c-.2-.137-.44-.269-.718-.396a24.958 24.958 0 0 0-.901-.388c-.82-.342-1.433-.76-1.839-1.253-.4-.493-.6-1.088-.6-1.787 0-.546.11-1.015.33-1.406.22-.395.517-.72.893-.974.38-.254.82-.44 1.318-.557a6.625 6.625 0 0 1 1.582-.183c.547 0 1.03.034 1.45.103.425.063.816.163 1.173.3v2.19a4.116 4.116 0 0 0-1.216-.55 4.54 4.54 0 0 0-.66-.138 4.558 4.558 0 0 0-.615-.044c-.268 0-.512.027-.732.08-.22.049-.405.12-.557.213a1.06 1.06 0 0 0-.351.336.772.772 0 0 0-.125.433.85.85 0 0 0 .14.476c.092.136.224.268.395.395.17.122.378.244.622.366.245.118.52.24.828.367.42.175.796.363 1.128.564.337.195.625.417.864.666a2.6 2.6 0 0 1 .55.857c.127.317.19.689.19 1.113 0 .586-.112 1.08-.337 1.48-.22.395-.52.718-.9.967-.382.244-.826.42-1.334.527a7.631 7.631 0 0 1-1.597.161 8.954 8.954 0 0 1-1.647-.146 4.963 4.963 0 0 1-1.348-.44zm13.33.586c-1.504 0-2.73-.488-3.677-1.465-.947-.986-1.42-2.263-1.42-3.83 0-1.656.48-2.998 1.442-4.029.957-1.025 2.232-1.538 3.823-1.538 1.5 0 2.71.491 3.633 1.473.928.976 1.392 2.27 1.392 3.881 0 1.646-.481 2.976-1.443 3.992a1.891 1.891 0 0 0-.095.102c-.03.03-.061.06-.095.088l2.658 2.557h-3.31L22.33 33a5.89 5.89 0 0 1-1.516.183zm.102-8.826c-.825 0-1.484.313-1.977.938-.488.62-.733 1.443-.733 2.468 0 1.04.245 1.863.733 2.468.488.606 1.128.909 1.919.909.815 0 1.462-.293 1.94-.88.48-.595.719-1.413.719-2.453 0-1.084-.232-1.931-.696-2.541-.46-.606-1.094-.909-1.904-.909zM34.014 33h-6.255V22.497h2.366v8.584h3.89V33z" fill="#fff"/></svg>
